icons/codespaces-16.svg

<svg xmlns="http://www.w3.org/2000/svg" width="16" height="16" viewBox="0 0 16 16">
  <defs/>
  <path d="M0,11.25 C0,10.284 0.784,9.5 1.75,9.5 L14.25,9.5 C15.216,9.5 16,10.284 16,11.25 L16,14.25 C16,15.216 15.216,16 14.25,16 L1.75,16 C0.784,16 0,15.216 0,14.25 Z M2,1.75 C2,0.784 2.784,0 3.75,0 L12.25,0 C13.216,0 14,0.784 14,1.75 L14,6.75 C14,7.716 13.216,8.5 12.25,8.5 L3.75,8.5 C2.784,8.5 2,7.716 2,6.75 Z M3.75,1.5 C3.612,1.5 3.5,1.612 3.5,1.75 L3.5,6.75 C3.5,6.888 3.612,7 3.75,7 L12.25,7 C12.388,7 12.5,6.888 12.5,6.75 L12.5,1.75 C12.5,1.612 12.388,1.5 12.25,1.5 Z M1.75,11 C1.612,11 1.5,11.112 1.5,11.25 L1.5,14.25 C1.5,14.388 1.612,14.5 1.75,14.5 L14.25,14.5 C14.388,14.5 14.5,14.388 14.5,14.25 L14.5,11.25 C14.5,11.112 14.388,11 14.25,11 Z"/>
  <path d="M7,12.75 C7,12.336 7.336,12 7.75,12 L12.25,12 C12.664,12 13,12.336 13,12.75 C13,13.164 12.664,13.5 12.25,13.5 L7.75,13.5 C7.336,13.5 7,13.164 7,12.75 Z M3,12.75 C3,12.336 3.336,12 3.75,12 L4.25,12 C4.664,12 5,12.336 5,12.75 C5,13.164 4.664,13.5 4.25,13.5 L3.75,13.5 C3.336,13.5 3,13.164 3,12.75 Z"/>
</svg>

<svg xmlns="http://www.w3.org/2000/svg" width="16" height="16" viewBox="0 0 16 16"><path fill-rule="evenodd" d="M2 1.75C2 .784 2.784 0 3.75 0h8.5C13.216 0 14 .784 14 1.75v5a1.75 1.75 0 01-1.75 1.75h-8.5A1.75 1.75 0 012 6.75v-5zm1.75-.25a.25.25 0 00-.25.25v5c0 .138.112.25.25.25h8.5a.25.25 0 00.25-.25v-5a.25.25 0 00-.25-.25h-8.5zM0 11.25c0-.966.784-1.75 1.75-1.75h12.5c.966 0 1.75.784 1.75 1.75v3A1.75 1.75 0 0114.25 16H1.75A1.75 1.75 0 010 14.25v-3zM1.75 11a.25.25 0 00-.25.25v3c0 .138.112.25.25.25h12.5a.25.25 0 00.25-.25v-3a.25.25 0 00-.25-.25H1.75z"/><path fill-rule="evenodd" d="M3 12.75a.75.75 0 01.75-.75h.5a.75.75 0 010 1.5h-.5a.75.75 0 01-.75-.75zm4 0a.75.75 0 01.75-.75h4.5a.75.75 0 010 1.5h-4.5a.75.75 0 01-.75-.75z"/></svg>
